public/svg/different/time.svg

<svg width="123" height="93" viewBox="0 0 123 93" fill="none" xmlns="http://www.w3.org/2000/svg">
<path fill-rule="evenodd" clip-rule="evenodd" d="M98.8384 11.7285C90.3729 6.19964 80.1672 3.98326 70.171 5.50277C60.1747 7.02227 51.0886 12.1712 44.6484 19.9658C43.7627 21.0378 42.1757 21.1888 41.1037 20.3031C40.0317 19.4174 39.8807 17.8304 40.7664 16.7584C47.9953 8.00928 58.194 2.22992 69.4142 0.52435C80.6345 -1.18122 92.0899 1.30656 101.592 7.51245C111.094 13.7183 117.977 23.2073 120.926 34.1667C123.874 45.1261 122.682 56.7877 117.577 66.9238C112.472 77.0599 103.811 84.96 93.2502 89.1149C82.6889 93.2699 70.9671 93.3884 60.3241 89.4478C49.681 85.5073 40.8626 77.7839 35.5535 67.7531C30.2444 57.7223 28.8168 46.0871 31.5434 35.0703C31.8774 33.7205 33.2425 32.8971 34.5923 33.2312C35.9421 33.5652 36.7655 34.9303 36.4315 36.2801C34.0024 46.0951 35.2743 56.4609 40.0042 65.3974C44.7341 74.334 52.5904 81.2148 62.0725 84.7255C71.5545 88.2361 81.9975 88.1306 91.4067 84.4289C100.816 80.7273 108.531 73.689 113.08 64.6587C117.628 55.6283 118.69 45.2389 116.063 35.4751C113.436 25.7112 107.304 17.2574 98.8384 11.7285Z" fill="#434343"/>
<path fill-rule="evenodd" clip-rule="evenodd" d="M0 89.7066C0 88.2635 1.12465 87.0938 2.51197 87.0938H77.0338C78.4211 87.0938 79.5458 88.2635 79.5458 89.7066C79.5458 91.1496 78.4211 92.3194 77.0338 92.3194H2.51197C1.12465 92.3194 0 91.1496 0 89.7066Z" fill="#434343"/>
<path fill-rule="evenodd" clip-rule="evenodd" d="M0 78.0952C0 76.6522 1.12802 75.4824 2.5195 75.4824H44.5112C45.9027 75.4824 47.0307 76.6522 47.0307 78.0952C47.0307 79.5383 45.9027 80.7081 44.5112 80.7081H2.5195C1.12802 80.7081 0 79.5383 0 78.0952Z" fill="#434343"/>
<path fill-rule="evenodd" clip-rule="evenodd" d="M0 66.48C0 65.037 1.11894 63.8672 2.49922 63.8672H35.8221C37.2024 63.8672 38.3213 65.037 38.3213 66.48C38.3213 67.923 37.2024 69.0928 35.8221 69.0928H2.49922C1.11894 69.0928 0 67.923 0 66.48Z" fill="#434343"/>
<path fill-rule="evenodd" clip-rule="evenodd" d="M76.3508 74.5375C92.0236 74.5375 104.729 61.8322 104.729 46.1594C104.729 30.4866 92.0236 17.7813 76.3508 17.7813C60.678 17.7813 47.9727 30.4866 47.9727 46.1594C47.9727 61.8322 60.678 74.5375 76.3508 74.5375ZM76.3508 79.5454C94.7894 79.5454 109.737 64.598 109.737 46.1594C109.737 27.7209 94.7894 12.7734 76.3508 12.7734C57.9123 12.7734 42.9648 27.7209 42.9648 46.1594C42.9648 64.598 57.9123 79.5454 76.3508 79.5454Z" fill="#F55E21"/>
<path fill-rule="evenodd" clip-rule="evenodd" d="M73.7383 27.4863C73.7383 26.0948 74.8802 24.9668 76.2889 24.9668C80.4927 24.9668 84.6022 26.1982 88.0976 28.5052C91.5929 30.8122 94.3172 34.0912 95.926 37.9276C97.5347 41.7641 97.9557 45.9856 97.1355 50.0583C96.3154 54.131 94.291 57.872 91.3185 60.8083C90.3224 61.7922 88.7074 61.7922 87.7114 60.8083L74.4853 47.7438C74.007 47.2713 73.7383 46.6305 73.7383 45.9623V27.4863ZM78.8395 30.2059V44.9187L89.3716 55.3222C90.7308 53.4686 91.6764 51.3393 92.1323 49.0752C92.7556 45.98 92.4357 42.7716 91.2131 39.856C89.9904 36.9403 87.92 34.4482 85.2635 32.6949C83.3203 31.4124 81.1275 30.5672 78.8395 30.2059Z" fill="#A4BA04"/>
</svg>

<svg width="123" height="93" fill="none" xmlns="http://www.w3.org/2000/svg"><path fill-rule="evenodd" clip-rule="evenodd" d="M98.838 11.729a41.124 41.124 0 00-54.19 8.237 2.518 2.518 0 11-3.882-3.208 46.16 46.16 0 11-9.223 18.312 2.518 2.518 0 114.889 1.21 41.124 41.124 0 1062.406-24.552z" fill="#434343"/><path fill-rule="evenodd" clip-rule="evenodd" d="M0 89.707c0-1.444 1.125-2.613 2.512-2.613h74.522c1.387 0 2.512 1.17 2.512 2.613s-1.125 2.612-2.512 2.612H2.512C1.125 92.32 0 91.15 0 89.707zm0-11.612c0-1.443 1.128-2.613 2.52-2.613h41.99c1.392 0 2.52 1.17 2.52 2.613s-1.128 2.613-2.52 2.613H2.52c-1.391 0-2.52-1.17-2.52-2.613zM0 66.48c0-1.443 1.119-2.613 2.5-2.613h33.322c1.38 0 2.5 1.17 2.5 2.613s-1.12 2.613-2.5 2.613H2.5c-1.38 0-2.5-1.17-2.5-2.613z" fill="#434343"/><path fill-rule="evenodd" clip-rule="evenodd" d="M76.35 74.537c15.674 0 28.379-12.705 28.379-28.378 0-15.672-12.705-28.378-28.378-28.378S47.973 30.487 47.973 46.16c0 15.673 12.705 28.378 28.378 28.378zm0 5.008c18.44 0 33.387-14.947 33.387-33.386 0-18.438-14.948-33.386-33.386-33.386-18.439 0-33.386 14.948-33.386 33.386 0 18.439 14.947 33.386 33.386 33.386z" fill="#F55E21"/><path fill-rule="evenodd" clip-rule="evenodd" d="M73.738 27.486c0-1.391 1.142-2.52 2.55-2.52 4.205 0 8.314 1.232 11.81 3.54a21.054 21.054 0 017.828 9.422 20.757 20.757 0 011.21 12.13 20.918 20.918 0 01-5.817 10.75 2.573 2.573 0 01-3.608 0L74.485 47.744a2.504 2.504 0 01-.747-1.782V27.486zm5.102 2.72v14.713l10.532 10.403a15.858 15.858 0 002.76-6.247 15.776 15.776 0 00-.919-9.219 16 16 0 00-5.95-7.161 16.27 16.27 0 00-6.424-2.49z" fill="#A4BA04"/></svg>
